X:1
T: Glenbucket Lodge
C:Alexander Walker
R:Strathspey
Q: 128
K:G
M:4/4
L:1/16
|:D2|G4 B3G d3G B3G|ce3 d3c cA3 A3B|G4 B3G d3G B3G|G3E D3C B,G,3 G,3D|
G4 B3G d3G B3G|ce3 d3c cA3 A3c|B3d c3e d3g e3c|B3d g3a bg3 g2g2|
b3g d3g Bg3 d4|b3g d3B cA3 A3a|bg3 d3G B3g d3B|c3A d3c BG3 G3g|
b3g d3g Bg3 d4|bg3 d3B cA3 A3a|gb3 g3d eg3 d3B|c3A d3F G6:|
